X:1
T:Fünf Lieder und Gesänge
T:Waldesgruß
T:Josef Rheinberger
T:1. Ulrich von Schlippenbach 2. Fanny Rheinberger
T:Waldesgruß
T:No. 5 aus Fünf Lieder und Gesänge, Op. 2
T:CPDL - Creative Commons Attribution Non Commercial 3.0
T:CPDL - Creative Commons Attribution Non Commercial 3.0
T:CPDL - Creative Commons Attribution Non Commercial 3.0
C:Josef Rheinberger
Z:Ulrich von Schlippenbach, Fanny von Hoffnaaß
Z:CPDL - Creative Commons Attribution Non Commercial 3.0
%%score [ 1 2 3 4 ]
L:1/8
Q:1/4=60
M:2/4
K:E
V:1 treble nm="Sopran"
V:2 treble nm="Alt"
V:3 treble-8 nm="Tenor"
V:4 bass nm="Bass"
V:1
"^Adagio"!pp! G/G/ | GG G/>G/G/G/ | AA z F/F/ | B3 A/G/ | F2 F>^^F | G>G e/d/c/B/ | B^A | f>^A | %8
w: 1. Durch des|Wal- des herbst- lich tie- fes|Schwei- gen zieht ein|Hauch, ein _|Hauch, rührt die|Blät- ter al- le an den|Zwei- gen,|rührt mich|
w: 2.  Mü- de|neigt die Son- ne sich zum|Mee- re, sinkt hin-|ab, hin- *|ab; ach! sie|seh- net nach des Ta- ges|Schwe- re|sich zu|
 B3"^dim." ^A/>!>(!A/!>)! | B2 z!p! F/F/ | B>B B/>F/B/d/ | ff z!f! f/>e/ |!>(! e3!>)!!pp! e/>d/ | %13
w: auch, rührt mich|auch. Wie es|mah- nend rauscht zu mei- nen|Fü- ßen, trau- ter|Wald! trau- ter|
w: Grab, sich zu|Grab. Wie der|Flu- ten fei- er- li- ches|Wo- gen fern ver-|hallt, fern ver-|
!<(! d3!<)!!f! !^!e/!^!d/ |"^marcato" c>B ^A/B/G/E/ | FF!pp! c>=c |!<(! B4-!<)! | %17
w: Wald! ich ver-|steh' dein fei- er- li- ches|Grü- ßen: bald, ja|bald!|
w: hallt, kommt ein|Klang durch mei- ne Brust ge-|zo- gen: bald, ja|bald!|
!>(! !fermata!B2!>)! z2 |] %18
w: _|
w: _|
V:2
!pp! E/E/ | EE E/>E/E/E/ | ED z D/D/ | E G2 F/E/ | D2 D>D | D E/F/ G/F/E/D/ | DC | z2 | %8
w: 1. Durch des|Wal- des herbst- lich tie- fes|Schwei- gen zieht ein|Hauch, zieht ein _|Hauch, rührt die|Blät- ter _ al- le an den|Zwei- gen,||
w: 2.  Mü- de|neigt die Son- ne sich zum|Mee- re, sinkt hin-|ab, sinkt hin- *|ab; ach! sie|seh- net _ nach des Ta- ges|Schwe- re||
 z G- G/"^dim."F!>(!E/!>)! | D2 z!p! D/D/ | D>D D/>D/F/D/ | CC z!f! ^A/>A/ | %12
w: rührt _ _ mich|auch. * *|||
w: sich _ _ zu|Grab. * *|||
!>(! ^A3!>)!!pp! =A/>A/ |!<(! A3!<)!!f! !^!G/!^!G/ |"^marcato" G>G G/>G/E/E/ | EE z!pp! E- | %16
w: ||steh' dein fei- er- li- ches|Grü- ßen: bald,|
w: ||Klang durch mei- ne Brust ge-|zo- gen: bald,|
!<(! E G2!<)!!>(! F/>E/!>)! | !fermata!E2 z2 |] %18
w: _ bald, ja _|bald!|
w: _ bald, ja _|bald!|
V:3
!pp! e/d/ | c>B ^A/B/G/E/ | FF z B/B/ | B2 cF | B2 B>B | ^B>B c/G/G/G/ | FF | z ^A/c/ | %8
w: 1. Durch des|Wal- des herbst- lich tie- fes|Schwei- gen zieht ein|Hauch, zieht ein|Hauch, rührt die|Blät- ter al- le an den|Zwei- gen,|rührt mich|
w: 2.  Mü- de|neigt die Son- ne sich zum|Mee- re, sinkt hin-|ab, sinkt hin-|ab; ach! sie|seh- net nach des Ta- ges|Schwe- re|sich zu|
 f>e"^dim." d!>(!c!>)! | B2 z!p! B/B/ | B>B B/>B/B/B/ | B^A z!f! c/>c/ |!>(! c3!>)!!pp! =c/>B/ | %13
w: auch, * rührt mich|auch. Wie es|mah- nend rauscht zu mei- nen|Fü- ßen, trau- ter|Wald! trau- ter|
w: Grab, * sich zu|Grab. Wie der|Flu- ten fei- er- li- ches|Wo- gen fern ver-|hallt, fern ver-|
!<(! B3!<)!!f! !^!B/!^!B/ |"^marcato" e>e e/>e/B/G/ | ^AA z!pp! F |!<(! (G B2)!<)!!>(! A/>G/!>)! | %17
w: Wald! ich ver-|steh' dein fei- er- li- ches|Grü- ßen: bald,|bald, _ ja _|
w: hallt, kommt ein|Klang durch mei- ne Brust ge-|zo- gen: bald,|bald, _ ja _|
 !fermata!G2 z2 |] %18
w: bald!|
w: bald!|
V:4
!pp! E,/E,/ | E,E, E,/>E,/E,/E,/ | B,,B,, z [B,,B,]/[A,,A,]/ | [G,,G,]2 [A,,A,]A,, | B,,2 B,A, | %5
w: 1. Durch des|Wal- des herbst- lich tie- fes|Schwei- gen zieht ein|Hauch, zieht ein|Hauch, rührt die|
w: 2.  Mü- de|neigt die Son- ne sich zum|Mee- re, sinkt hin-|ab, sinkt hin-|ab; ach! sie|
 G,>G, C,/D,/E,/E,/ | F,F, | z F,/E,/ | D,E,"^dim." F,!>(!F,!>)! | B,,2 z!p! B,/^A,/ | %10
w: Blät- ter al- le an den|Zwei- gen,||||
w: seh- net nach des Ta- ges|Schwe- re||||
 G,>F, ^E,/F,/D,/B,,/ | [F,,F,]F, z!f! F,/>F,/ |!>(! F,3!>)!!pp! F,/>F,/ | %13
w: |||
w: |||
 F,!<(!B,/A,/!<)!!f! G,/F,/E, |"^marcato" E,>E, E,E, | C,C, z!pp! ^A,, | %16
w: * ich ver- steh' _ dein|fei- er- li- ches|Grü- ßen: bald,|
w: * kommt ein Klang _ durch|mei- ne Brust ge-|zo- gen: bald,|
!<(! B,,2!<)!!>(! B,,2!>)! | !fermata!E,2 z2 |] %18
w: bald, ja|bald!|
w: bald, ja|bald!|

